X:984
T:Reel 984
M:4/4
K:Gmaj
L:1/8
d|gfgd BGG2|gabg e2de|gfgd BGG2|eaag edBA|gGG2 BGG2|gabg efg2|bdgd e2dB|A2cA BGG|c'|d'e'd'b gfga|bgd'f e'abc'|d'bab gfge|de'dc BAAa|be'e'd' e'd'ba|be'e'd' e'd'bc'|d'bac' bagf| (3efg dc BGG|
